X: 16230
T: Greensleeves
R: jig
M: 6/8
K: Gminor
|:A|B2B B>cd|cAF F>GA|B2B G>AB|A>G^F/^E/ D2A|B2B B>cd|cAF F>GA|B>AG A2^F|G3 G:|
|:^e|f2f f>ed|cAF F2f|gab a2g|fdd d2^e|f2f f>ed|cAF F2A|B>AG A2^F|G3 G:|

